X:1
T:Jesus Is Tenderly Calling You Home
T:George Coles Stebbins
T:Jesus Is Tenderly Calling You Home
T:Public Domain
T:Public Domain
C:George Coles Stebbins
Z:Public Domain
%%score ( 1 2 ) ( 3 4 )
L:1/8
M:6/8
K:C
V:1 treble 
V:2 treble 
V:3 bass 
V:4 bass 
V:1
 [EG][EG][EG] [EG][CE][DF] | [EG][FA][FB] [Ec]3 | [Fc][FB][FA] [FB]3 | [FA][EG][^D^F] [EG]3 | %4
w: 1.~Je- sus is ten- der- ly|call- ing you home|Call- ing to- day,|call- ing to- day,|
w: 2.~Je- sus is call- ing the|wea- ry to rest,|Call- ing to- day,|call- ing to- day,|
w: 3.~Je- sus is wait- ing, O|come to Him now,|Wait- ing to- day,|wait- ing to- day,|
w: 4.~Je- sus is plead- ing, O|list to His voice,|Hear Him to- day,|hear Him to- day,|
 [EG][EG][EG] [EG][CE][DF] | [EG][FA][FB] [Ec]3 | [DB][DA][DB] [^Fd][Fc][FA] | G3- [FG]2 z || %8
w: Why from the sun- shine of|love will you roam,|Far- ther and far- ther a-|way? *|
w: Bring Him your bur- den and|you shall be blest;|He will not turn you a-|way. Call-|
w: Come with your sins, at His|feet low- ly bow;|Come, and no long- er de-|lay. *|
w: They who be- lieve on His|Name shall re- joice;|Quick- ly a- rise and a-|way. *|
"^Refrain" [Ec]3- [Ec][EB][EA] | [FB]6 | [Fd]3- [Fd][Ec][DB] | [Ec]3- [Ec]2 z | %12
w: ||||
w: ing * to- day,|call-|ing * to- day,|Je- *|
w: ||||
w: ||||
 [G_Be]3- [GBe][FBd][EBc] | [Ac]3- [Ac][GB][FA] | [EG]>[EG][EG] G[FA][FB] | [Ec]3- [Ec]3/2 |] %16
w: ||||
w: sus * is call-|ing, * is ten-|der- ly call- ing to- day.||
w: ||||
w: ||||
V:2
 x6 | x6 | x6 | x6 | x6 | x6 | x6 | x6 || x6 | x6 | x6 | x6 | x6 | x6 | x3 F x2 | x9/2 |] %16
V:3
 [C,C][C,C][C,C] [C,C][C,G,][C,G,] | [C,C][C,C][C,C] [C,G,]3 | G,[G,D][G,D] [G,D]3 | %3
 [C,C][C,C][C,C] [C,C]3 | [C,C][C,C][C,C] [C,C][C,G,][C,G,] | [C,C][C,C][C,C] [C,G,]3 | %6
 [D,G,][D,^F,][D,G,] [D,A,][D,D][D,C] | [G,B,]3- [G,B,]2 z || [C,G,]2 [C,G,] [C,G,][C,G,][C,G,] | %9
 [D,G,]2 [D,G,] [E,G,]3 | [G,B,]2 [G,B,] [G,B,][G,C]G, | [C,G,]2 [C,G,] [C,G,]2 z | %12
 [C,C]>[C,C][C,C] [C,C][C,C][C,C] | [F,C][F,C][F,C] [F,C]2 [F,C] | %14
 [G,C]>[G,C][G,C] [G,B,][G,C][G,D] | [C,C]3- [C,C]3/2 |] %16
V:4
 x6 | x6 | G, x5 | x6 | x6 | x6 | x6 | x6 || x6 | x6 | x5 G, | x6 | x6 | x6 | x6 | x9/2 |] %16

